kora/status/symbolic/camera-disabled-symbolic.svg

<svg xmlns="http://www.w3.org/2000/svg" width="16" height="16" version="1.1">
 <path style="fill:#dfdfdf;opacity:0.35" d="M 2.40625 0.9921875 L 0.9921875 2.40625 L 1.5859375 3 C 0.71225771 3.0068525 0 3.6606624 0 4.5117188 L 0 13.445312 C 0 14.300868 0.7196083 15 1.5996094 15 L 13.585938 15 L 14.59375 16.007812 L 16.007812 14.59375 L 2.40625 0.9921875 z M 6 1 C 5.6 1 5.6005551 1.000707 5.2207031 1.4042969 L 4.9433594 1.8105469 L 8.1386719 5.0058594 A 4 4 0 0 1 11.994141 8.8613281 L 16 12.867188 L 16 4.5117188 C 16 3.6561631 15.280391 3 14.400391 3 L 11.863281 3 L 10.765625 1.3886719 C 10.400447 1.000673 10.4 1 10 1 L 6 1 z M 14.488281 4 A 0.5 0.5 0 0 1 14.5 4 A 0.5 0.5 0 0 1 15 4.5 A 0.5 0.5 0 0 1 14.5 5 A 0.5 0.5 0 0 1 14 4.5 A 0.5 0.5 0 0 1 14.488281 4 z M 4.9941406 6.4082031 L 6.40625 7.8203125 A 2 2 0 0 0 6 9 A 2 2 0 0 0 8 11 A 2 2 0 0 0 9.1757812 10.589844 L 10.599609 12.013672 A 4 4 0 0 1 8 13 A 4 4 0 0 1 4 9 A 4 4 0 0 1 4.9941406 6.4082031 z"/>
</svg>

<svg xmlns="http://www.w3.org/2000/svg" style="clip-rule:evenodd;fill-rule:evenodd;stroke-linejoin:round;stroke-miterlimit:2" version="1.1" viewBox="0 0 16 16">
 <defs>
  <style id="current-color-scheme" type="text/css">
   .ColorScheme-Text { color:#dfdfdf; } .ColorScheme-Highlight { color:#4285f4; } .ColorScheme-NeutralText { color:#ff9800; } .ColorScheme-PositiveText { color:#4caf50; } .ColorScheme-NegativeText { color:#f44336; }
  </style>
 </defs>
 <path style="fill-opacity:.35;;fill:currentColor;" class="ColorScheme-Text" d="m2.406 0.992-1.414 1.414 0.594 0.594c-0.874 7e-3 -1.586 0.661-1.586 1.512v8.933c-0 0.856 0.72 1.555 1.6 1.555h11.986l1.008 1.008 1.414-1.414-13.602-13.602zm3.594 8e-3c-0.4 0-0.399 1e-3 -0.779 0.404l-0.278 0.407 3.196 3.195c2.086 0.074 3.781 1.769 3.855 3.855l4.006 4.006v-8.355c0-0.856-0.72-1.512-1.6-1.512h-2.537l-1.097-1.611c-0.366-0.388-0.366-0.389-0.766-0.389h-4zm8.488 3h0.012c0.274 0 0.5 0.226 0.5 0.5s-0.226 0.5-0.5 0.5-0.5-0.226-0.5-0.5c-0-0.27 0.218-0.494 0.488-0.5zm-9.494 2.408 1.412 1.412c-0.257 0.34-0.4 0.754-0.406 1.18 0 1.097 0.903 2 2 2 0.426-8e-3 0.838-0.152 1.176-0.41l1.424 1.424c-0.721 0.629-1.644 0.979-2.6 0.986-2.194 0-4-1.806-4-4 0.011-0.955 0.364-1.874 0.994-2.592z"/>
</svg>
